X:977
T:Mrs. Maxwell
T:Planxty Madam Maxwell
R:Air
O:Ireland
C:Turlough Carolan
B:The Complete Works of O'Carolan
B:The Irish Collection
S:My arrangement from various sources
Z:Transcription, arrangement, chords:Mike Long
M:2/4
L:1/16
K:D
"D"ABA2 AFD2|F2A2 A2d2|"A"cde2 "D"def2|"A/Em"efg2 "A"f2e2|\
"D"d2A2 GFED|"G"G2B2 B2d2|\
"A"c2A2 e2dc|"D"d4 d4:|
|:"D"a2d2 a2d2|"G"g2b2 b2ag|"D"f2d2 a2gf|"A"g2e2 e2g2|\
"D"fga2 "G"gab2|"D"a2g2 "A"f2e2|
"G"d2B2 e2d2|"A"c2 A4 Bc|\
"D"d4 "A"cBAG|"D"F2D2 D2d2|"A"cde2 "G"fed2|
"A"c2 A4 Bc|\
"D"dcBA "A"BAGF|"G"G2 B2B2 A2|"G"BAGF "A"AGFE|"D"D4 D4:|
